X:1
T:James Gibb editions
T:Exaltabo te - Casali
T:#
%%score [ 1 2 3 4 ]
L:1/8
Q:1/4=120
M:2/2
K:C
V:1 treble nm="Soprano" snm="S"
V:2 treble nm="Alto" snm="A"
V:3 treble-8 nm="Tenor" snm="T"
V:4 bass nm="Bass" snm="B"
V:1
"^allegro vivo" z2"^Giovanni Battista Casali\n(1715-1792)"!f! c4 B2 | c2 G2 z4 | %2
w: Ex- al-|ta- bo,|
 c2 G2"^Exaltabo te" A2 cc | (B2 !>!c4) B2 | c4 z4 | z2 c4 BB |[M:2/2] c2 A2 !>!B3 B | A4 z4 | %8
w: ex- al- ta- bo te,|Do\- * mi-|ne,|quo ni- am|su- sce- pi- sti|me,|
 z Adc B2 B2 | z GcB A2 A2 | Bcdc B2 G2 | BcdB c2 B2 | A3 A"^," B2 G2 | A2 B2 c4 | B4 d3 d | %15
w: nec de- le- cta- sti,|nec de- le- cta- sti,|i- ni- mi- cos me- os,|i- ni- mi- cos me- os|su- per me, nec|de- le- cta-|sti i- ni-|
 B2 B2 !>!A4 |"^," B4 ABcA | B2"^," B2 c2 B2 | A3 A!>(! !fermata!B4!>)! || %19
w: mi- cos me-|os i- ni- mi- cos|me- os, me- os|su- per me,|
!p!"^moderato"[Q:1/4=92] B3 B B2 B2 |!<(! c4 d3 d!<)! | %21
w: Do- mi- ne, cla-|ma- vi ad|
[Q:1/4=92]"^,"[Q:1/4=92][Q:1/4=92][Q:1/4=92] e4"^tempo Imo"!f![Q:1/4=120] e3 d | c2 ^c2 d3 =c | %23
w: te et sa-|na- sti, et sa-|
 (_B2 =B2)"^," c2!mf! G2 |"^rit."[Q:1/4=117] (A2[Q:1/4=112] ^F2[Q:1/4=107] G3)[Q:1/4=103] G | %25
w: na\- * sti, sa-|na\- * * sti|
"^,"[Q:1/4=102] G2"^a tempo"!f![Q:1/4=120] c3 G G2 | z2 c2 G2 cc | %27
w: me; Do- mi- ne,|cla- ma- vi ad|
[Q:1/4=120][Q:1/4=120][Q:1/4=120][Q:1/4=120] B2 z2 z2 B2 | c2 cc"^," B2 Bd | c2"^," c2 (Bc) (dB) | %30
w: te, cla-|ma- vi ad te, et sa-|na- sti, et * sa\- *|
 c6 B2 |"^," c2!p!!<(! G2 G4 | G2 ^G2!<)! A4 | z4!f! d3 =c | _B2"^," =B2 c3 _B | (A2 c2 =B2 c2- | %36
w: na- sti|me, cla- ma-|vi ad te,|et sa-|na- sti, et sa-|na\- * * *|
 c2) B2 c2 z2 | z4 z2 c2 | (Bd)cB"^," c2 cG | (A2 c2 !courtesy!=B2 c2- | c2) B2 c2 c2 | %41
w: * sti me,|cla-|ma- * vi ad te, et sa|na\- * * *|* sti me, cla-|
 d2 Bd c2 z2 | z4 z2 (!>!e2- | ed) (cB)"^," (c2 !>!d2- | dcBA"^," B2 !>!c2- | cB AG A2 Bc | %46
w: ma- vi ad te|et|* * sa\- * na\- *|||
 B2 c4) B2 |"^," c2"^meno vivo"!mf![Q:1/4=100] c4 c2 |[Q:1/4=95] (c8 | %49
w: * * sti|me, et sa-|na\-|
[Q:1/4=89] !>!A6)"^rit."[Q:1/4=85] A2 |[Q:1/4=85] !fermata!G8 |] %51
w: * sti|me.|
V:2
!f! G4 G4 | G2 E2 z4 | E2 G2 F2 EE | (G3 A G3) G | G2 z2 D2 DD | E2 ^F2 !>!G2 G2 | %6
w: Ex- al-|ta- bo,|ex- al- ta- bo te,|Do\- * * mi-|ne, quo- ni- am|su- sce- pi- sti,|
[M:2/2] G2 D2 !>!G3 G | ^F4 z4 | z4 z DG=F | E2 EE ^F3 F | G2"^," G2 GABA | G2"^," G2 G4- | %12
w: su- sce- pi- sti|me,|nec de- le-|cta- sti, nec de- le-|cta- sti i- ni- mi- cos|me- os su\-|
 G2 ^F2 G4 | z8 | G3 G ^F2 F2 | G4"^," D2 ^FA | G2 G2 ^FGAF | G2 G2 G4- | %18
w: * per me,||i- ni- mi- cos|me- os, i- ni-|mi- cos, i- ni- mi- cos|me- os su\-|
 G2 ^F2!>(! !fermata!G4!>)! ||!p! G3 G G2 E2 |!<(! A4 A3 A!<)! | ^G4!f! G3 B | A8 | %23
w: * per me.|Do- mi- ne, cla-|ma- vi ad|te et sa|na-|
"^," !courtesy!=G6!mf! E2 |"^rit." (F2 C2 D3) D | E4 z2!f! G2 | G8 |"^," G2 G2 !>!G4- | %28
w: sti, sa-|na\- * * sti|me; cla-|ma-|vi, cla- ma\-|
 G2 GG G2 z2 | G4 G4 | (G2 A4) G2 |"^," G2!p!!<(! E2 D4 | D2 D2!<)!"^," E2 !>!E2- | E2 E2 (A4 | %34
w: * vi ad te,|et sa-|na\- * sti|me, cla- ma-|vi ad te, et|* sa- na\-|
 G8 | =F2 ^F2 G4- | G2) G2 G2!f! G2 | G2 GG"^," G2 ^F2 | G4 G2 G2- | G2 (=F4 EF) | G2 G2 G4 | %41
w: ||* sti me, cla-|ma- vi ad te, cla-|ma- vi et|* sa\- * *|na- sti me,|
 z4 z2 E2 | F2 DF E4 | z4 z2 (!>!F2- | FE) (DC)"^," (D2 !>!E2- | ED CB,"^," C2 FE/F/ | G7) G | %47
w: cla-|ma- vi ad te,|et|* * sa\- * na\- *||* sti|
"^," G4!mf! A2 G2 | (A2 G2) A2 G2 | !>!F6"^rit." F2 | !fermata!E8 |] %51
w: me, et sa-|na\- * sti, sa-|na- sti|me.|
V:3
!f! e4 d4 | e2"^," c2 e2 B2 | c2"^," c2 c2 c2 | d2 cf d3 d | e2 z2 z4 | z4 d2 dd | %6
w: Ex- al-|ta- bo, ex- al-|ta- bo, ex- al-|ta- bo te Do- mi-|ne,|quo- ni- am|
[M:2/2][K:treble-8] e2 d2 !>!d3 d | d4 z2 G2 | A2 A2 B2"^," d2 | c2 cc (d4- | dc)"^," B2 Bcdc | %11
w: su- sce- pi- sti|me, nec|de- le- cta- sti,|nec de- le- cta\-|* * sti, i- ni- mi- cos|
 B2 B2 e2 d2 | d3 d"^," d2 B2 | ^F2 F2 (G2 A2 | B4) A4 | z4 d3 d | (BA) (Bc) d4 |"^," d4 e2 d2 | %18
w: me- os, su- per,|su- per me, nec|de- le- cta\- *|* sti|i- ni-|mi\- * cos * me-|os, me- os|
 d3 d!>(! !fermata!d4!>)! ||!p! d3 d d2 e2 |!<(! e4 A3 A!<)! | B4 z4 |!f! e3 e (d4- | %23
w: su- per me.|Do- mi- ne, cla-|ma- vi ad|te|et sa- na\-|
 d4!>(! c4-!>)! |"^rit." c6) B2 |"^," c2!f! e3 e e2 | z2 e2 d2 ee | d2 z2 z2 d2 | e2 ee d2 df | %29
w: |* sti|me; Do- mi- ne,|cla- ma- vi ad|te, cla-|ma- vi ad te, et sa-|
 e2 e2 (de) (fd) | (e4 d2) d2 |"^," e2!p!!<(! c2 d4 | _B2 d2!<)!"^," ^c2 !>!c2- | c2 ^c2 (d4- | %34
w: na- sti, et * sa\- *|na\- * sti|me, cla- ma-|vi ad te, et|* sa- na\-|
 d4 =c2) e2 | c2 c2 (d2 e2 | d2) d2"^," e2!f! e2 | (dc)Bd"^," c2 c2 | !>!d2 ef e4 | c2 c2 (d2 e2 | %40
w: * * sti,|et sa- na\- *|* sti me, cla-|ma\- * vi ad te, cla-|ma- vi ad te,|et sa- na\- *|
 d2) d2"^," e2 e2 | f2 df e4 | z8 | z2 (c3 B) (AG) |"^," (A2 !>!B3 A GF | G2"^," A4 de | %46
w: * sti me, cla-|ma- vi ad te||et * sa\- *|na\- * * * *||
 d2) ee d3 d |"^," e4!mf! f2 c2 | (f2 e2) f2 c2 | !>!c6"^rit." c2 | !fermata!c8 |] %51
w: * sti, sa- na- sti|me, et sa-|na\- * sti, sa-|na- sti|me.|
V:4
!f! C,4 G,4 | C2"^," C,2 C2 G,2 | A,2"^," E,2 F,2 A,2 | (G,F,)E,F, G,3 G, | C,2 !^!C4 B,B, | %5
w: Ex- al-|ta- bo, ex- al-|ta- bo, ex- al-|ta\- * bo te Do- mi-|ne, quo- ni- am|
 C2 A,2 !>!G,2 G,2 |[M:2/2] E,2 ^F,2 !>!G,3 G, |"^," D,2 D,2 E,2 E,2 | ^F,4 G,3 G, | %9
w: su- sce- pi- sti,|su- sce- pi- sti|me, nec de- le-|cta- sti, nec|
 C2 A,2 ^F,2 D,2 | G,A,B,A, G,2 G,2 | G,A,B,G, C2 G,2 | D,3 D, G,4 | z2 D,2 E,2 ^F,2 | %14
w: de- le- cta- sti|i- ni- mi- cos me- os,|i- ni- mi- cos me- os|su- per me,|nec de- le-|
 G,4"^," D,4 | G,3 G, ^F,2 D,2 | G,4"^," D,4 | G,A,B,G, C2 G,2 | D,3 D,!>(! !fermata!G,4!>)! || %19
w: cta- sti,|i- ni- mi- cos|me- os,|i- ni- mi- cos me- os|su- per me.|
!p! G,3 G, G,2 ^G,2 |!<(! A,4 F,3 F,!<)! | E,4 z4 |!f! A,3 G, =F,2"^," ^F,2 | G,3 =F, E,2"^," C,2 | %24
w: Do- mi- ne, cla-|ma- vi ad|te|et sa- na- sti,|et sa- na- sti,|
"^rit." F,2 A,2 G,3 G, |"^," C,2!f! C3 C, C,2 | z2 C2 B,2 CC | G,2 z2 z2 G,2 | C2 C,C, G,2 z2 | %29
w: et sa- na- sti|me; Do- mi- ne,|cla- ma- vi ad|te, cla-|ma- vi ad te|
 (C,D,) (E,F,) G,2 G,2 | (CB,) (A,G,) F,2 G,2 |"^," C,2!p!!<(! C2 _B,4 | _B,2 B,2!<)!"^," A,4 | %33
w: et * sa\- * na- sti,|et * sa\- * na- sti|me, cla- ma-|vi ad te,|
!f! !>!A,3 G, !courtesy!=F,2"^," ^F,2 | G,3 =F, E,2"^," C,2 | F,2 A,2 G,4- | G,2 G,2 C,2 C2 | %37
w: et sa- na- sti,|et sa- na- sti,|et sa- na\-|* sti me, cla-|
 (B,A,)G,F, E,2 A,2 | (G,F,)E,D,"^," C,4 | F,2 A,2 G,4- | G,2 G,2 C,4 | z4 z2 C2 | D2 G,G, C4 | %43
w: ma\- * vi ad te, cla-|ma\- * vi ad te,|et sa- na\-|* sti me,|cla-|ma- vi ad te,|
 z2 (A,3 G,) (F,E,) |"^," (D,2 !>!G,3 F, E,D, |"^," E,2 !>!F,3 E, D,C, | G,2) CC G,3 G, | %47
w: et * sa\- *|na\- * * * *||* sti, sa- na- sti|
"^," C,4!mf! F,2 E,2 | (F,2 C,2) F,2 E,2 | !>!F,6"^rit." F,2 | !fermata!C,8 |] %51
w: me, et sa-|na\- * sti, sa-|na- sti|me.|

